img/svg/placeholder-gear.svg

<svg xmlns="http://www.w3.org/2000/svg" viewBox="0 0 512 512" style="height: 512px; width: 512px;"><g class="" transform="translate(0,0)" style=""><path d="M230.125 18.156V247h49.313V18.156h-49.313zM78.812 21.438l-16 136.906c48.707 30.112 97.637 47.843 148.625 53.094V33.125c-44.244-1.822-88.46-5.89-132.625-11.688zm349.438.28c-43.398 6.814-86.784 10.647-130.125 11.97v175c46.732-7.458 95.816-24.375 148.438-50.844L428.25 21.72zm-1.938 166.532c-44.474 19.847-87.06 32.836-128.187 38.97V247h37.031v143.188h-37.031v8.718c0 34.41-20.516 56.084-43.25 56.28-22.734.2-43.438-21.34-43.438-56.28v-8.72l-27.656.002h-9.343V247h37.001v-17.188c-43.774-4.164-86.14-16.857-127.687-38.062 5.04 92.69 3.66 185.37-5.063 278.063 117.402 32.047 234.788 31.002 352.188 0-6.853-93.858-9.223-187.706-4.563-281.563zm-233.187 77.438V371.5H316.47V265.687H193.124zm20.47 18.156H296v67.5h-82.406v-67.5zm18.686 18.687v30.126h45.032V302.53h-45.03zm-2.155 87.658v8.718c0 28.23 13.32 37.692 24.594 37.594 11.27-.098 24.718-10.018 24.718-37.594v-8.72l-49.313.002z" fill="#fff" fill-opacity="1"></path></g></svg>

<svg width="512" height="512" viewBox="0 0 512 512" fill="none" xmlns="http://www.w3.org/2000/svg">
<path d="M230.125 18.1558V247H279.438V18.1558H230.125ZM78.812 21.4378L62.812 158.344C111.519 188.456 160.449 206.187 211.437 211.438V33.1248C167.193 31.3028 122.977 27.2358 78.812 21.4378ZM428.25 21.7178C384.852 28.5318 341.466 32.3648 298.125 33.6878V208.688C344.857 201.23 393.941 184.313 446.563 157.844L428.25 21.7198V21.7178ZM426.312 188.25C381.838 208.097 339.252 221.086 298.125 227.22V247H335.156V390.188H298.125V398.906C298.125 433.316 277.609 454.99 254.875 455.186C232.141 455.386 211.437 433.846 211.437 398.906V390.186L183.781 390.188H174.438V247H211.439V229.812C167.665 225.648 125.299 212.955 83.752 191.75C88.792 284.44 87.412 377.12 78.689 469.813C196.091 501.86 313.477 500.815 430.877 469.813C424.024 375.955 421.654 282.107 426.314 188.25H426.312ZM193.125 265.688V371.5H316.47V265.687H193.124L193.125 265.688ZM213.595 283.844H296V351.344H213.594V283.844H213.595ZM232.281 302.531V332.657H277.313V302.53H232.283L232.281 302.531ZM230.126 390.189V398.907C230.126 427.137 243.446 436.599 254.72 436.501C265.99 436.403 279.438 426.483 279.438 398.907V390.187L230.125 390.189H230.126Z" fill="#444856"/>
</svg>
